X: 1000
T: High-Caul Cap
R: march
%S: s:3 b:20(6+6+8)
B: Francis O'Neill: "The Dance Music of Ireland" (1907) #1000
Z: Frank Nordberg - http://www.musicaviva.com
F: http://www.musicaviva.com/abc/tunes/ireland/oneill-1001/1000/oneill-1001-1000-1.abc
M: C
L: 1/8
K: Em
D2 | G2(GA) B2d2 | cBA(G BA)GA | B2A2 A2(GA) | B2A2 A2D2 || G(FGA) B2d2 | cBA(G Bc)AB |
| G2E2 E2(DE) | G2E2 E2 :: d2 | e2g2 d2e2 | cBA(G BA)GA | B2A2 A2(GA) | B2A2 A2d2 |
[1 e2g2 d2e2 | cBA(G Bc)AB | G2E2 G2(DE) | G2E2 E2 :|\
[2 e(fge) dged | BdA(c Bc)AB | G2E2 E2(DE) | G2E2E2 |]
